wp-content/plugins/sitepress-multilingual-cms/res/flags/am.svg

<svg width="32" height="32" viewBox="0 0 32 32" fill="none" xmlns="http://www.w3.org/2000/svg">
<path d="M30 5.33356H2C0.895431 5.33356 0 6.22898 0 7.33355V24.6664C0 25.771 0.895431 26.6664 2 26.6664H30C31.1046 26.6664 32 25.771 32 24.6664V7.33356C32 6.22899 31.1046 5.33356 30 5.33356Z" fill="#0052B4"/>
<path d="M30 5.33356H2C0.895431 5.33356 0 6.22899 0 7.33355V12.4445H32V7.33356C32 6.22899 31.1046 5.33356 30 5.33356Z" fill="#FF4B55"/>
<path d="M32 19.5555H0V24.6664C0 25.771 0.895431 26.6664 2 26.6664H30C31.1046 26.6664 32 25.771 32 24.6664V19.5555Z" fill="#FF9811"/>
</svg>

<svg xmlns="http://www.w3.org/2000/svg" width="32" height="32" fill="none"><path fill="#0052B4" d="M30 5.334H2a2 2 0 0 0-2 2v17.332a2 2 0 0 0 2 2h28a2 2 0 0 0 2-2V7.334a2 2 0 0 0-2-2Z"/><path fill="#FF4B55" d="M30 5.334H2a2 2 0 0 0-2 2v5.11h32v-5.11a2 2 0 0 0-2-2Z"/><path fill="#FF9811" d="M32 19.555H0v5.111a2 2 0 0 0 2 2h28a2 2 0 0 0 2-2v-5.11Z"/></svg>
